packages/core/src/svgs/hero.svg

<svg width="24" height="24" viewBox="0 0 24 24" fill="none" xmlns="http://www.w3.org/2000/svg">
<g clip-path="url(#clip0_31_11399)">
<path d="M0 0H24V24H0V0Z" fill="url(#paint0_linear_31_11399)"/>
<path fill-rule="evenodd" clip-rule="evenodd" d="M11.64 4.37982C11.7497 4.31746 11.8737 4.28467 12 4.28467C12.1262 4.28467 12.2502 4.31746 12.36 4.37982L18.5143 7.89411C18.7285 8.01411 18.8571 8.23268 18.8571 8.46411V15.5355C18.8571 15.767 18.7285 15.9855 18.5143 16.1055L12.36 19.6198C12.1371 19.7484 11.8628 19.7484 11.64 19.6198L5.48568 16.1055C5.27139 15.9855 5.14282 15.767 5.14282 15.5355V8.46411C5.14282 8.23268 5.27139 8.01411 5.48568 7.89411L11.64 4.37982ZM11.6614 4.80411C11.7646 4.7455 11.8813 4.71469 12 4.71469C12.1187 4.71469 12.2353 4.7455 12.3385 4.80411L18.1071 8.12125C18.3085 8.23697 18.4285 8.43839 18.4285 8.66125V15.3427C18.4285 15.5655 18.3085 15.7713 18.1071 15.8827L14.9228 17.7127L14.7943 13.7784L15.4371 12.0941L15.45 12.0598L15.4928 11.8584C15.5828 11.4898 15.69 11.0655 15.6814 10.6584C15.6814 10.3884 15.6171 9.58697 15.5871 9.24411L15.5828 9.15411L15.5443 9.06839C15.454 8.86213 15.3342 8.67012 15.1885 8.49839C15.0612 8.33935 14.896 8.21481 14.7081 8.13619C14.5201 8.05757 14.3155 8.02738 14.1128 8.04839C14.0051 7.91132 13.8668 7.80122 13.7091 7.72684C13.5514 7.65245 13.3786 7.61581 13.2043 7.61982C13.1057 7.61982 13.0157 7.62411 12.93 7.64125C12.7399 7.39303 12.4596 7.22979 12.15 7.18697C11.9104 7.14288 11.6631 7.1697 11.4385 7.26411C11.2695 7.14978 11.0755 7.07775 10.8728 7.05411H10.8128C10.4185 7.05411 10.1057 7.16125 9.88282 7.39268C9.72425 7.55554 9.63425 7.76554 9.57854 7.97982C9.34282 8.01411 9.07282 8.07839 8.82425 8.20697C8.39997 8.43411 8.28425 8.88411 8.24568 9.12839C8.20678 9.38243 8.2039 9.64069 8.23711 9.89554L8.45568 11.6698L10.0714 13.7013L9.71139 18.077L5.89282 15.8827C5.79638 15.829 5.71585 15.7508 5.6594 15.656C5.60295 15.5611 5.57259 15.453 5.57139 15.3427V8.65697C5.57139 8.43411 5.69139 8.22839 5.89282 8.11697L11.6571 4.79982L11.6614 4.80411ZM9.98996 18.2355L10.2557 18.3855L10.3328 17.5113L11.52 15.1241L14.3228 17.5541H14.3314L14.3485 18.0427L14.6357 17.8713L14.4943 13.727L15.1543 12.0127L15.1585 11.9955L15.21 11.7813C15.2957 11.4127 15.3943 11.027 15.39 10.6541C15.3857 10.397 15.3257 9.61268 15.2957 9.25697L15.2914 9.21411L15.2743 9.17125C15.1944 8.99134 15.0891 8.8239 14.9614 8.67411C14.8243 8.51554 14.5928 8.31411 14.2885 8.31411C14.1685 8.31411 14.0571 8.33125 13.9671 8.36125C13.8992 8.21731 13.7909 8.09616 13.6555 8.01249C13.5201 7.92881 13.3634 7.8862 13.2043 7.88982C13.0457 7.88982 12.9043 7.92411 12.7885 7.96697C12.7292 7.82915 12.6346 7.70943 12.5142 7.61988C12.3938 7.53034 12.2519 7.47414 12.1028 7.45697C11.9824 7.43191 11.858 7.43231 11.7377 7.45814C11.6174 7.48397 11.5038 7.53466 11.4043 7.60697C11.2285 7.41839 10.98 7.34554 10.8428 7.33268H10.8128C10.14 7.33268 9.91282 7.68411 9.82711 8.23268C9.57854 8.24982 9.24854 8.30125 8.96997 8.44697C8.67425 8.60554 8.57568 8.93125 8.53711 9.16697C8.49425 9.42411 8.50711 9.68125 8.52854 9.85268L8.74282 11.5584L10.3714 13.6155L9.99425 18.2355H9.98996ZM11.4557 15.0898L10.3457 17.3227L10.6671 13.6198L11.4685 15.0684L11.4557 15.0898ZM9.91711 11.4127L10.56 13.3841L9.03854 11.4641L9.91711 11.4127ZM9.86568 11.3484L9.01711 11.3998L8.88854 10.3713L8.89711 10.337L8.91425 10.3284L9.86568 11.3484ZM9.23568 8.99125L8.86711 10.1998L8.82425 9.82268C8.78139 9.53125 8.78139 8.93125 9.06854 8.72125L9.23996 8.98697L9.23568 8.99125ZM9.30854 8.96554L9.12854 8.68697C9.39782 8.5664 9.69074 8.50782 9.98568 8.51554L10.3543 9.18839L9.30854 8.96554ZM10.7614 8.21982L10.0885 8.46839L10.1743 7.91554C10.1743 7.89839 10.1871 7.87268 10.2043 7.84268L10.7614 8.21982ZM10.8128 7.61125C10.5043 7.61125 10.3328 7.69697 10.2471 7.79125L10.8214 8.17697L10.8385 8.19411L11.31 8.02268C11.2371 7.72268 10.9543 7.62411 10.8128 7.61125ZM11.3957 8.08268H11.3914L11.3357 10.1098L11.3485 10.1441L12.0385 9.08554L11.3957 8.08697V8.08268ZM12.0514 7.73554C11.6743 7.67554 11.4985 7.87268 11.4385 8.02268L12.5614 8.25839C12.5493 8.12524 12.4914 8.00039 12.3977 7.90507C12.3039 7.80975 12.18 7.74984 12.0471 7.73554H12.0514ZM13.0928 9.14982L12.6771 8.35697C12.7628 8.27982 12.9428 8.17268 13.2043 8.17268C13.5728 8.17268 13.7528 8.45125 13.7571 8.74697L13.0928 9.15411V9.14982ZM13.9071 8.73411L13.8728 8.75554L13.8643 8.77268L14.1343 9.19268L14.9357 9.14554C14.8071 8.90554 14.5628 8.59268 14.2885 8.59268C14.0828 8.59268 13.9628 8.65697 13.9028 8.72125L13.9071 8.73411ZM14.7985 9.75839C14.8714 9.56982 14.9357 9.38554 14.9828 9.23554L15 9.27839C15.0257 9.58697 15.0728 10.2041 15.0857 10.5255L14.7985 9.75411V9.75839ZM15.06 10.6498L15.09 10.7313C15.0771 10.937 15.0043 11.3184 14.94 11.6227L14.8971 11.6313L13.3543 11.1813L15.06 10.6498ZM13.3071 12.5613L14.9228 11.7127L14.8714 11.9355L14.1985 13.6798L13.3071 12.5655V12.5613ZM14.1771 13.7655L14.2028 13.7955L14.3228 17.3827L13.0714 14.2627L14.1771 13.7655ZM12.54 8.32268L11.49 8.10411L12.0814 9.02125L12.54 8.32268ZM11.4771 10.0755L12.0814 9.14554L12.3814 9.56125L11.4771 10.0755ZM11.3485 10.3027L11.4471 10.3884L11.8843 10.8427C11.6914 10.7355 11.4643 10.637 11.2543 10.5555L11.3485 10.2984V10.3027ZM11.2714 9.91697L11.3014 8.72125L10.9928 9.07697L11.2714 9.91268V9.91697ZM10.8214 9.33839C10.6628 9.52832 10.4484 9.66331 10.2085 9.72411L10.4957 10.2555L10.8214 9.33839ZM10.4057 10.2384C10.2771 10.1355 10.1828 9.98125 10.1785 9.80554L10.4057 10.2384ZM10.5471 10.3155L10.9543 9.17982L11.2671 10.1184V10.1784C11.2328 10.2427 11.0957 10.3841 10.8214 10.3841L10.7614 10.3798L10.5471 10.3155ZM10.4828 10.3798L10.5043 10.4227L10.5171 10.4013L11.1257 11.1984L9.08139 10.3198L10.4828 10.3798ZM11.2843 10.2684L11.1857 10.5298C11.1 10.4955 11.0185 10.4655 10.9414 10.4441C11.1128 10.4141 11.2243 10.337 11.2843 10.2727V10.2684ZM12.09 11.0527L12.1114 11.0784L12.1157 11.0613C12.4634 11.3017 12.7532 11.6164 12.9643 11.9827L11.37 11.3013L12.09 11.0527ZM12.1328 10.9755L12.2271 10.487C12.33 10.6241 12.5228 10.787 12.8143 10.787C13.0124 10.7922 13.2063 10.7286 13.3628 10.607L13.2128 11.1427L12.1328 10.9713V10.9755ZM12.1714 10.4227L12.0685 10.937L11.64 10.487C11.6871 10.5041 11.7385 10.5127 11.7943 10.5127C11.9743 10.5127 12.0985 10.4655 12.1714 10.4227ZM12.1371 10.3627C12.0814 10.397 11.9657 10.4484 11.7943 10.4484C11.6871 10.4484 11.5885 10.4055 11.5071 10.3455L11.4943 10.337L11.43 10.2684L12.1371 10.3627ZM12.2057 10.3027L11.3957 10.1955L12.3643 9.65125C12.3197 9.87034 12.2668 10.0876 12.2057 10.3027ZM12.2485 10.3884C12.3214 10.517 12.5057 10.7184 12.8143 10.7184C13.1185 10.7184 13.3028 10.5813 13.38 10.4955L13.3671 10.4441L12.2528 10.3755L12.2485 10.3927V10.3884ZM13.3414 10.3755L12.2743 10.3113L12.2914 10.2684C12.3494 10.0517 12.3994 9.83301 12.4414 9.61268L13.3414 10.3755ZM12.1243 9.08554L12.5614 8.41697C12.5185 8.72554 12.4585 9.10268 12.4028 9.43697L12.3943 9.46697L12.1243 9.08554ZM11.5071 14.9913L10.7014 13.5427L12.2314 13.517L11.5028 14.9913H11.5071ZM10.6628 13.4741L12.1843 13.4484L10.02 11.4941L10.6585 13.4613L10.6628 13.4741ZM14.1343 13.7098L13.2685 12.6213L13.0628 14.1941L14.1343 13.7098ZM13.1914 12.6641L12.3257 13.487L12.9943 14.1727L13.1914 12.6641ZM12.9814 14.2584L12.2914 13.5513L11.55 15.0598L14.2585 17.4127L13.0071 14.2927L12.9771 14.3055L12.9814 14.2584ZM14.7428 11.7298L13.2728 12.5013L13.0714 12.047L14.7428 11.7298ZM13.2128 12.5441L13.0157 12.0941L12.4071 13.3198L13.2128 12.5484V12.5441ZM13.1957 11.2155L13.0028 11.9141C12.8033 11.58 12.5397 11.2887 12.2271 11.057L13.1957 11.2113V11.2155ZM12.03 11.0013C11.6233 10.7686 11.1921 10.5818 10.7443 10.4441C10.7014 10.4441 10.6585 10.4313 10.6157 10.4184L11.2585 11.2541L11.2714 11.2627H11.2843L12.03 11.0055V11.0013ZM15.0385 10.5898L14.7643 9.85268C14.6828 10.0498 14.5928 10.2384 14.5071 10.3798C14.3614 10.6113 14.1814 10.7613 13.9843 10.7913C13.8043 10.8213 13.62 10.7441 13.4485 10.5513L13.29 11.1298L15.0385 10.5898ZM12.1757 13.3498L10.02 11.4041L11.22 11.3313L12.1757 13.3455V13.3498ZM9.95568 11.3441L11.1214 11.2713L9.06425 10.3884L9.95568 11.3441ZM13.0585 11.9827L13.2643 11.2241L14.7514 11.6613L13.0585 11.9827ZM12.2828 13.4098L12.96 12.0513L11.3057 11.3484L12.2828 13.4098ZM10.3843 10.307L9.02139 10.2513L9.70711 9.77982V9.78411C9.80997 9.78839 9.95139 9.78411 10.1057 9.74554C10.0885 9.98554 10.2085 10.1827 10.3843 10.307ZM13.0328 9.18839L12.63 8.42125C12.5793 8.78795 12.5221 9.15372 12.4585 9.51839L13.0328 9.18839ZM12.4971 9.57411L13.0628 9.24839L13.32 10.2684L12.4971 9.57411ZM13.1228 9.21411L13.74 8.83697C13.6543 9.29982 13.5128 10.0027 13.4185 10.3498L13.4143 10.3455L13.1271 9.21839L13.1228 9.21411ZM13.8171 8.82839C13.7357 9.23982 13.6114 9.86982 13.5171 10.2513L14.0743 9.23125L13.8171 8.82411V8.82839ZM13.5257 10.3798L14.7385 9.72411C14.8071 9.53982 14.8671 9.35982 14.9143 9.20982L14.1343 9.26125L13.5257 10.3755V10.3798ZM10.8985 8.24125L11.3185 8.08697L11.3057 8.58839L10.8985 8.24554V8.24125ZM11.04 8.91411L11.2757 8.64839L11.1128 8.51125C11.1085 8.66554 11.0743 8.80697 11.04 8.91411ZM10.8085 8.27125V8.27982C10.8428 8.29697 10.89 8.33125 10.9371 8.37411L11.0443 8.48125C11.04 8.72982 10.9628 8.95268 10.9157 9.04697L10.4443 9.20554L10.0757 8.54125L10.8085 8.27554V8.27125ZM10.8771 9.12839C10.7485 9.37268 10.5428 9.51839 10.3285 9.60839C10.1357 9.68554 9.94282 9.71554 9.79282 9.71982L10.4314 9.27839H10.4443L10.8728 9.13268L10.8771 9.12839ZM13.9757 10.7227C13.8171 10.7484 13.6457 10.6798 13.4785 10.4827L14.7 9.82268C14.6228 10.0155 14.5328 10.2084 14.4428 10.3455C14.3057 10.5684 14.1428 10.697 13.9714 10.7227H13.9757ZM10.3457 9.25697L9.29568 9.03411L8.93139 10.2341L10.3457 9.25697Z" fill="#62C6BA"/>
</g>
<defs>
<linearGradient id="paint0_linear_31_11399" x1="12" y1="0" x2="12" y2="24" gradientUnits="userSpaceOnUse">
<stop stop-color="#236659"/>
<stop offset="1" stop-color="#111316"/>
</linearGradient>
<clipPath id="clip0_31_11399">
<rect width="24" height="24" fill="white"/>
</clipPath>
</defs>
</svg>

<svg xmlns="http://www.w3.org/2000/svg" width="24" height="24" fill="none" viewBox="0 0 24 24"><g clip-path="url(#a)"><path fill="url(#b)" d="M0 0h24v24H0z"/><path fill="#62C6BA" fill-rule="evenodd" d="M11.64 4.38a.73.73 0 0 1 .72 0l6.154 3.514c.215.12.343.339.343.57v7.072c0 .231-.128.45-.343.57L12.36 19.62a.72.72 0 0 1-.72 0l-6.154-3.515a.66.66 0 0 1-.343-.57v-7.07c0-.232.128-.45.343-.57zm.021.424a.69.69 0 0 1 .678 0l5.768 3.317a.62.62 0 0 1 .322.54v6.682c0 .223-.12.428-.322.54l-3.184 1.83-.129-3.935.643-1.684.013-.034.043-.202c.09-.368.197-.793.188-1.2 0-.27-.064-1.071-.094-1.414l-.004-.09-.039-.086a2.3 2.3 0 0 0-.356-.57 1.22 1.22 0 0 0-1.075-.45 1.12 1.12 0 0 0-.909-.428c-.098 0-.188.004-.274.021a1.19 1.19 0 0 0-.78-.454 1.25 1.25 0 0 0-.712.077 1.3 1.3 0 0 0-.565-.21h-.06c-.395 0-.707.107-.93.339a1.3 1.3 0 0 0-.304.587 2.4 2.4 0 0 0-.755.227c-.424.227-.54.677-.578.921a2.7 2.7 0 0 0-.009.768l.219 1.774L10.07 13.7l-.36 4.376-3.818-2.194a.63.63 0 0 1-.322-.54V8.657c0-.223.12-.429.322-.54L11.657 4.8zM9.99 18.235l.266.15.077-.874 1.187-2.387 2.803 2.43h.008l.018.489.287-.172-.142-4.144.66-1.714.005-.018.051-.214c.086-.368.184-.754.18-1.127a34 34 0 0 0-.094-1.397l-.005-.043-.017-.043a2 2 0 0 0-.313-.497c-.137-.158-.368-.36-.672-.36-.12 0-.232.017-.322.047a.82.82 0 0 0-.763-.471c-.158 0-.3.034-.415.077a.85.85 0 0 0-.686-.51.88.88 0 0 0-.699.15.93.93 0 0 0-.561-.274h-.03c-.673 0-.9.351-.986.9-.248.017-.578.068-.857.214-.296.159-.394.484-.433.72a2.5 2.5 0 0 0-.008.686l.214 1.705 1.628 2.058-.377 4.62zm1.466-3.145-1.11 2.233.321-3.703.802 1.448zm-1.539-3.677.643 1.971-1.521-1.92zm-.051-.065-.849.052-.128-1.029.008-.034.017-.009zm-.63-2.357L8.867 10.2l-.043-.377c-.043-.292-.043-.892.245-1.102l.171.266zm.073-.025-.18-.279c.269-.12.562-.18.857-.171l.368.672zm1.452-.746-.672.248.085-.552c0-.018.013-.043.03-.073zm.052-.609c-.309 0-.48.086-.566.18l.574.386.018.017.471-.171c-.073-.3-.356-.399-.497-.412m.583.472h-.005l-.055 2.027.012.034.69-1.058-.642-.999zm.655-.347c-.377-.06-.553.137-.613.287l1.123.235a.58.58 0 0 0-.514-.522zm1.042 1.414-.416-.793a.8.8 0 0 1 .527-.184c.369 0 .549.278.553.574l-.664.407zm.814-.416-.034.022-.009.017.27.42.802-.047c-.129-.24-.373-.553-.647-.553-.206 0-.326.064-.386.128zm.892 1.024a9 9 0 0 0 .184-.522l.017.042c.026.309.073.926.086 1.247l-.287-.77zm.261.892.03.081a8 8 0 0 1-.15.892l-.043.008-1.543-.45zm-1.753 1.911 1.616-.848-.052.223-.673 1.744-.89-1.114zm.87 1.204.026.03.12 3.588-1.252-3.12zM12.54 8.324l-1.05-.219.591.917zm-1.063 1.752.604-.93.3.416zm-.129.228.1.085.436.455a5 5 0 0 0-.63-.287l.095-.258zm-.077-.386.03-1.196-.308.356.278.836zm-.45-.579c-.158.19-.373.325-.612.386l.287.531zm-.415.9a.58.58 0 0 1-.228-.432zm.141.078.407-1.136.313.938v.06c-.034.065-.171.206-.446.206l-.06-.004zm-.064.064.021.043.013-.022.609.797-2.045-.878zm.801-.112-.098.262a2 2 0 0 0-.245-.086.6.6 0 0 0 .343-.171zm.806.785.021.025.005-.017c.347.24.637.555.848.922L11.37 11.3zm.043-.078.094-.488c.103.137.296.3.587.3a.86.86 0 0 0 .549-.18l-.15.536-1.08-.172zm.038-.552-.102.514-.429-.45a.5.5 0 0 0 .154.026c.18 0 .304-.047.377-.09m-.034-.06a.66.66 0 0 1-.343.085.5.5 0 0 1-.287-.103l-.013-.008-.064-.069zm.069-.06-.81-.108.968-.544a9 9 0 0 1-.158.652m.043.085c.072.129.257.33.565.33.304 0 .489-.137.566-.223l-.013-.05-1.114-.07-.005.018zm1.092-.012-1.067-.065.017-.043q.087-.324.15-.655zm-1.217-1.29.437-.669c-.043.309-.102.686-.158 1.02l-.009.03zm-.617 5.905-.806-1.448 1.53-.026-.728 1.474zm-.844-1.517 1.521-.026-2.164-1.954.639 1.967zm3.471.236-.866-1.089-.205 1.573zm-.943-1.046-.865.823.668.686zm-.21 1.594-.69-.707-.741 1.509 2.708 2.353-1.25-3.12-.03.013zm1.762-2.528-1.47.771-.202-.454zm-1.53.814-.197-.45-.609 1.226.806-.772zm-.017-1.328-.193.698a2.95 2.95 0 0 0-.776-.857l.969.154zM12.03 11a6.3 6.3 0 0 0-1.286-.557.5.5 0 0 1-.128-.026l.643.836.012.009h.013l.746-.258zm3.009-.411-.275-.737a4 4 0 0 1-.257.527c-.146.231-.326.381-.523.411-.18.03-.364-.047-.536-.24l-.158.579zm-2.863 2.76-2.156-1.946 1.2-.073.956 2.015zm-2.22-2.006 1.165-.073-2.057-.883zm3.103.639.205-.759 1.487.437zm-.776 1.427.677-1.359-1.654-.703zm-1.899-3.103-1.363-.056.686-.471v.004c.103.004.244 0 .399-.038a.63.63 0 0 0 .278.561m2.649-1.119-.403-.767q-.076.55-.171 1.097zm-.536.386.566-.326.257 1.02zm.626-.36.617-.377a25 25 0 0 1-.322 1.513l-.004-.005-.287-1.127zm.694-.386c-.081.412-.206 1.042-.3 1.423l.557-1.02-.257-.407zm-.291 1.552 1.213-.656c.068-.184.128-.364.175-.514l-.78.051-.608 1.115zM10.899 8.24l.42-.154-.013.501-.407-.342zm.141.673.236-.266-.163-.137a1.5 1.5 0 0 1-.073.403m-.231-.643v.009a.6.6 0 0 1 .128.094l.107.107a1.4 1.4 0 0 1-.128.566l-.472.159-.368-.665.732-.265zm.068.857c-.129.245-.334.39-.549.48a1.6 1.6 0 0 1-.535.112l.638-.442h.013l.429-.145zm3.099 1.595c-.159.025-.33-.043-.498-.24l1.222-.66a3 3 0 0 1-.257.522c-.137.223-.3.352-.472.378zm-3.63-1.466-1.05-.223-.365 1.2z" clip-rule="evenodd"/></g><defs><linearGradient id="b" x1="12" x2="12" y1="0" y2="24" gradientUnits="userSpaceOnUse"><stop stop-color="#236659"/><stop offset="1" stop-color="#111316"/></linearGradient><clipPath id="a"><path fill="#fff" d="M0 0h24v24H0z"/></clipPath></defs></svg>
